web/assets/svg/common/mobile-nav-close.svg

<svg xmlns="http://www.w3.org/2000/svg" viewBox="0 0 34.71 34.71"><defs><style>.cls-1{fill:#afafaf;}</style></defs><g id="app-text"><path class="cls-1" d="m19.48 17.35 14.1-14.1a1.5 1.5 0 0 0-2.12-2.12l-14.11 14.1-14.1-14.1a1.5 1.5 0 1 0-2.12 2.12l14.1 14.1-14.1 14.11a1.5 1.5 0 1 0 2.12 2.12l14.1-14.1 14.11 14.1a1.5 1.5 0 0 0 2.12-2.12Z"/></g></svg>

<svg xmlns="http://www.w3.org/2000/svg" viewBox="0 0 34.71 34.71"><defs><style>.cls-1{fill:#afafaf;}</style></defs><title>mobile-nav-close</title><g id="app-text"><path class="cls-1" d="M19.48,17.35,33.58,3.25a1.5,1.5,0,0,0-2.12-2.12L17.35,15.23,3.25,1.13A1.5,1.5,0,1,0,1.13,3.25L15.23,17.35,1.13,31.46a1.5,1.5,0,1,0,2.12,2.12L17.35,19.48,31.46,33.58a1.5,1.5,0,0,0,2.12-2.12Z"/></g></svg>
